X: 10
T: Apples In Winter
R: jig
M: 6/8
L: 1/8
K: Bmin
fBB ~a3|fBc cBc|~A3 cAc|efg ~a3|
fBB ~a3|fBc cBc|Ace aga|1fec Bce:|2fec B2e|:
fbb baf|b2b baf|~a3 aec|Ace aga|
fbb fbb|eaa eaa|fec ~a3|fec B2A:|


Tune 299	Setting 13054

